X: 172
T: Struen Robertson's Rant
R: reel, strathspey
B: Robert Bremner "A Collection of Scots Reels or Country Dances" p.17 #2
S: http://imslp.org/wiki/A_Collection_of_Scots_Reels_or_Country_Dances_(Bremner,_Robert)
Z: 2013 John Chambers <jc:trillian.mit.edu>
M: C|
L: 1/8
K: Edor
% - - - - - - - - - - - - - - - - - - - - - - - - -
V: 1
B |\
E/E/E G>A (TB>AB)d | D/D/D FE (DF/G/A)F |\
E/E/E G>A TB>ABe | dBdF E/E/E E :|
|: f |\
efge bfge | Tf>edf (a/g/f/e/) df |\
efge bfge | dBAF E/E/E E :|
% - - - - - - - - - - - - - - - - - - - - - - - - -
V: 2 clef=bass middle=d
z |\
e2e2 e2e2 | d2d2 d2d2 |\
e2e2 e2e2 | d2d2 e2e :|\
|: z |
e2e2 e2e2 | d2d2 d2d2 |\
e2e2 e2e2 | d2d2 e2e :|
% - - - - - - - - - - - - - - - - - - - - - - - - -

%%sep 1 1 500
%%sep 1 1 500
